icons/drag-move.svg

<svg width="24" height="24" viewBox="0 0 24 24" fill="none" xmlns="http://www.w3.org/2000/svg">
<path fill-rule="evenodd" clip-rule="evenodd" d="M11.2929 2.29289C11.6834 1.90237 12.3166 1.90237 12.7071 2.29289L15.7071 5.29289C16.0976 5.68342 16.0976 6.31658 15.7071 6.70711C15.3166 7.09763 14.6834 7.09763 14.2929 6.70711L12 4.41421L9.70711 6.70711C9.31658 7.09763 8.68342 7.09763 8.29289 6.70711C7.90237 6.31658 7.90237 5.68342 8.29289 5.29289L11.2929 2.29289ZM6.70711 8.29289C7.09763 8.68342 7.09763 9.31658 6.70711 9.70711L4.41421 12L6.70711 14.2929C7.09763 14.6834 7.09763 15.3166 6.70711 15.7071C6.31658 16.0976 5.68342 16.0976 5.29289 15.7071L2.29289 12.7071C1.90237 12.3166 1.90237 11.6834 2.29289 11.2929L5.29289 8.29289C5.68342 7.90237 6.31658 7.90237 6.70711 8.29289ZM17.2929 8.29289C17.6834 7.90237 18.3166 7.90237 18.7071 8.29289L21.7071 11.2929C22.0976 11.6834 22.0976 12.3166 21.7071 12.7071L18.7071 15.7071C18.3166 16.0976 17.6834 16.0976 17.2929 15.7071C16.9024 15.3166 16.9024 14.6834 17.2929 14.2929L19.5858 12L17.2929 9.70711C16.9024 9.31658 16.9024 8.68342 17.2929 8.29289ZM10 12C10 10.8954 10.8954 10 12 10C13.1046 10 14 10.8954 14 12C14 13.1046 13.1046 14 12 14C10.8954 14 10 13.1046 10 12ZM8.29289 17.2929C8.68342 16.9024 9.31658 16.9024 9.70711 17.2929L12 19.5858L14.2929 17.2929C14.6834 16.9024 15.3166 16.9024 15.7071 17.2929C16.0976 17.6834 16.0976 18.3166 15.7071 18.7071L12.7071 21.7071C12.3166 22.0976 11.6834 22.0976 11.2929 21.7071L8.29289 18.7071C7.90237 18.3166 7.90237 17.6834 8.29289 17.2929Z" fill="black"/>
</svg>

<svg
  width="24"
  height="24"
  viewBox="0 0 24 24"
  xmlns="http://www.w3.org/2000/svg"
>
  <path
    fill-rule="evenodd"
    clip-rule="evenodd"
    d="M11.293 2.293a1 1 0 0 1 1.414 0l3 3a1 1 0 0 1-1.414 1.414L12 4.414 9.707 6.707a1 1 0 0 1-1.414-1.414l3-3zm-4.586 6a1 1 0 0 1 0 1.414L4.414 12l2.293 2.293a1 1 0 1 1-1.414 1.414l-3-3a1 1 0 0 1 0-1.414l3-3a1 1 0 0 1 1.414 0zm10.586 0a1 1 0 0 1 1.414 0l3 3a1 1 0 0 1 0 1.414l-3 3a1 1 0 0 1-1.414-1.414L19.586 12l-2.293-2.293a1 1 0 0 1 0-1.414zM10 12a2 2 0 1 1 4 0 2 2 0 0 1-4 0zm-1.707 5.293a1 1 0 0 1 1.414 0L12 19.586l2.293-2.293a1 1 0 0 1 1.414 1.414l-3 3a1 1 0 0 1-1.414 0l-3-3a1 1 0 0 1 0-1.414z"
  />
</svg>
